res/ConiferLogo.svg

<?xml version="1.0" encoding="UTF-8" standalone="no"?>
<!-- Created with Inkscape (http://www.inkscape.org/) -->

<svg
   width="210mm"
   height="297mm"
   viewBox="0 0 210 297"
   version="1.1"
   id="svg5"
   xml:space="preserve"
   inkscape:version="1.2.1 (9c6d41e410, 2022-07-14)"
   sodipodi:docname="ConifterLogo.svg"
   xmlns:inkscape="http://www.inkscape.org/namespaces/inkscape"
   xmlns:sodipodi="http://sodipodi.sourceforge.net/DTD/sodipodi-0.dtd"
   xmlns="http://www.w3.org/2000/svg"
   xmlns:svg="http://www.w3.org/2000/svg"><sodipodi:namedview
     id="namedview7"
     pagecolor="#ffffff"
     bordercolor="#999999"
     borderopacity="1"
     inkscape:showpageshadow="0"
     inkscape:pageopacity="0"
     inkscape:pagecheckerboard="0"
     inkscape:deskcolor="#d1d1d1"
     inkscape:document-units="mm"
     showgrid="false"
     inkscape:zoom="1.4142136"
     inkscape:cx="370.8775"
     inkscape:cy="761.90754"
     inkscape:window-width="2400"
     inkscape:window-height="1261"
     inkscape:window-x="2391"
     inkscape:window-y="-9"
     inkscape:window-maximized="1"
     inkscape:current-layer="layer1" /><defs
     id="defs2" /><g
     inkscape:label="Layer 1"
     inkscape:groupmode="layer"
     id="layer1"><path
       style="fill:#000000;stroke-width:0.0781705"
       d="M 50.678059,243.81081 0,164.51882 0.02490247,164.49652 0.04980494,164.47422 55.521,191.161 14.99075,123.374 57.621,139.19184 29.93115,82.275 64.133,96.87 44.872,41.175 73.519,55.059 59.813,0.076 105,24.74 150.187,0.076 136.481,55.059 165.1275,41.1755 145.867,96.793987 180.069,82.275 152.379,139.207 195.00925,123.3745 154.479,191.161 209.95,164.474 159.32,243.74 104.97078,269.97538 Z M 187.77,184.064 l -73.783,35.558 39.061,18.803 z M 144.857,195.844 105,176.635 65.143,195.844 105,215.052 Z M 95.517,172.113 81.714,165.412 93.29,161.1169 34.024,139.126 63.098,187.786 Z M 137.516,144.707 105,132.64153 72.484,144.707 105,156.772 Z m 25.439,-46.271 -47.577,20.303 12.602,5.376 -11.271,4.182 26.873,9.971 z M 135.289,101.384 105,88.459 74.712,101.384 105,114.31 Z M 94.621,84.03 84.827,79.851 95.543,74.786487 58.978,57.065 71.688,93.816 Z M 126.265,60.267 105,50.216 84.264,60.267 105,70.317 Z m 11.506,-44.133 -24.269,13.247 16.219,8.322833 -14.85283,7.985167 13.80383,6.9476 z"
       id="path240"
       sodipodi:nodetypes="ccccccccccccccccccccccccccccccccccccccccccccccccccccccccccccccccccccccccc" /></g></svg>

<svg width="209.95mm" height="269.9mm" version="1.1" viewBox="0 0 209.95 269.9" xml:space="preserve" xmlns="http://www.w3.org/2000/svg"><g transform="translate(0 -.076)"><path d="m50.678 243.81-50.678-79.292 0.049805-0.0446 55.471 26.687-40.53-67.787 42.63 15.818-27.69-56.917 34.202 14.595-19.261-55.695 28.647 13.884-13.706-54.983 45.187 24.664 45.187-24.664-13.706 54.983 28.646-13.884-19.26 55.618 34.202-14.519-27.69 56.932 42.63-15.832-40.53 67.786 55.471-26.687-50.63 79.266-54.349 26.235zm137.09-59.747-73.783 35.558 39.061 18.803zm-42.913 11.78-39.857-19.209-39.857 19.209 39.857 19.208zm-49.34-23.731-13.803-6.701 11.576-4.2951-59.266-21.991 29.074 48.66zm41.999-27.406-32.516-12.065-32.516 12.065 32.516 12.065zm25.439-46.271-47.577 20.303 12.602 5.376-11.271 4.182 26.873 9.971zm-27.666 2.948-30.289-12.925-30.288 12.925 30.288 12.926zm-40.668-17.354-9.794-4.179 10.716-5.0645-36.565-17.721 12.71 36.751zm31.644-23.763-21.265-10.051-20.736 10.051 20.736 10.05zm11.506-44.133-24.269 13.247 16.219 8.3228-14.853 7.9852 13.804 6.9476z" stroke-width=".07817"/></g></svg>
